src/icons/icons_set_01/059-favoris-moins.svg

<svg height="140" viewBox="0 0 140 140" width="140" xmlns="http://www.w3.org/2000/svg"><path d="m109.616147 85.3838527h-17.2322943c-1.3165655 0-2.3838527-1.0672872-2.3838527-2.3838527s1.0672872-2.3838527 2.3838527-2.3838527h17.2322943c1.316566 0 2.383853 1.0672872 2.383853 2.3838527s-1.067287 2.3838527-2.383853 2.3838527zm8.676037-16.2354749v.0157062c6.280822 8.014686 6.179283 19.3141069-.244554 27.2144303-6.423837 7.9003237-17.457479 10.2954477-26.5743076 5.7686087-6.0260051 5.308699-16.8225975 13.852877-20.9968615 13.852877-6.9675684 0-50.781647-34.2552424-52.4764609-62.824837v-1.6962706c-.0005198-12.6791627 8.3750098-23.8312438 20.5442638-27.3548428 12.169254-3.5235991 25.200236 1.4302414 31.9635826 12.1512322 5.2264576-8.2097053 14.2679995-13.1930419 23.9941712-13.2246282 15.6997614-.0087433 28.4460844 12.6993613 28.4979824 28.4125326v1.727683c-.507138 5.576961-2.106857 10.9993334-4.707816 15.9575086zm-17.12076-3.5810157v.0628248c-9.3739463.008659-16.9708729 7.612115-16.9795244 16.9941184.0346371 9.3773361 7.6518984 16.954332 17.0212174 16.9312421 9.369319-.02309 16.949206-7.6375381 16.937703-17.0149311-.011503-9.3773931-7.610048-16.9731901-16.979396-16.9732542z"/></svg>

<?xml version="1.0" encoding="UTF-8"?>
<svg width="140px" height="140px" viewBox="0 0 140 140" version="1.1" xmlns="http://www.w3.org/2000/svg" xmlns:xlink="http://www.w3.org/1999/xlink">
    <!-- Generator: Sketch 55 (78076) - https://sketchapp.com -->
    <title>059-favoris-moins</title>
    <desc>Created with Sketch.</desc>
    <g id="059-favoris-moins" stroke="none" stroke-width="1" fill="none" fill-rule="evenodd">
        <path d="M109.616147,85.3838527 L92.3838527,85.3838527 C91.0672872,85.3838527 90,84.3165655 90,83 C90,81.6834345 91.0672872,80.6161473 92.3838527,80.6161473 L109.616147,80.6161473 C110.932713,80.6161473 112,81.6834345 112,83 C112,84.3165655 110.932713,85.3838527 109.616147,85.3838527 Z M118.292184,69.1483778 L118.292184,69.164084 C124.573006,77.17877 124.471467,88.4781909 118.04763,96.3785143 C111.623793,104.278838 100.590151,106.673962 91.4733224,102.147123 C85.4473173,107.455822 74.6507249,116 70.4764609,116 C63.5088925,116 19.6948139,81.7447576 18,53.175163 L18,51.4788924 C17.9994802,38.7997297 26.3750098,27.6476486 38.5442638,24.1240496 C50.7135178,20.6004505 63.7444998,25.554291 70.5078464,36.2752818 C75.734304,28.0655765 84.7758459,23.0822399 94.5020176,23.0506536 C110.201779,23.0419103 122.948102,35.7500149 123,51.4631862 L123,53.1908692 C122.492862,58.7678302 120.893143,64.1902026 118.292184,69.1483778 Z M101.171424,65.5673621 L101.171424,65.6301869 C91.7974777,65.6388459 84.2005511,73.2423019 84.1918996,82.6243053 C84.2265367,92.0016414 91.843798,99.5786373 101.213117,99.5555474 C110.582436,99.5324574 118.162323,91.9180093 118.15082,82.5406163 C118.139317,73.1632232 110.540772,65.5674262 101.171424,65.5673621 Z" id="Shape" fill="#000000" fill-rule="nonzero"></path>
    </g>
</svg>
